X: 1
T:AIR VII. Bonny Broom.
B:Joseph Mitchell: "The Highland Fair" (1731)
Z:Jack Campin <http://www.purr.demon.co.uk/jack/jack.html>
M:C
L:1/8
K:Fmix
E|E3     G  B3       c|(BG)(FG) E2 (eB)   |c2 (e>f) (e/f/g) f>e|c6 e2|
 (B>c)(e>f) g2 (g/f/)e| e2  E>F G2 G/(F/E)|A2 (B>c) (B>c)(B>G) |F6  |]
